X:25
T:Rambling Rake
Z: id:dc-setdance-26
M:C|
L:1/8
K:A Dorian
E|AGAB cBcd|efec d2ge|d2ge d2ge|dcBA G2GB|!
AGAB cBcd|efec d2ge|dBGB dedB|c2A2 A3:|!
d|efec d2g2|efec d2g2|fgaf dgg2|fgaf d2ga|!
bagf efga|bagf efga|baga bagf|edef g2fg|!
efec d2g2|efed c2Bc|ABcd gfge|dcBA G2GB|!
AGAB cBcd|efec d2ge|dBGB dedB|c2A2 A3|]!

